X: 1
T: Paddy Murphy's Wife
M: 4/4
L: 1/8
R: reel
K: Dmix
FDAD BDAD|G2cG ECAG|FDAD BDAD|1 Ad^ce d2AG:|2 Ad^ce d3e||
fada fdag|egcd efge|fade fdd^c|d2AG FADe|
fada fdag|egcd efge|afge edd^c|d2AG FADE||
